X: 1
T: SAD THE CUCKOO IS CALLING
O: from Jow Cashmere, Oooligal, NSW
R: waltz
Z: 2014 John Chambers <jc:trillian.mit.edu>
N: In a set for Luciens Waltz
N: The high e in bar 29 sounds better as d.
M: 3/4
L: 1/8
K: G
Bc |\
"G"d2 B2 B2 | B2 c2 d2 | "Am"e2 A2 A2 | A4 AG |\
"D7"F2 A2 c2 |[1 e2 d2 d2 | "G"c2 B2 B2 | B4 :|[2 e2 d2 F2 | "G"G4 GG | G4 ||
|: Bc |\
"G"dB dB dB | dB dB dB | "G"d2 b2 b2 | b2 a2 g2 |\
"D7"f2 a2 a2 |[1 a2 g2 f2 | "G"d2 g2 g2 | g4 |[2 e'2 e2 f2 | "G"g3 g g2 | g4 |]
